static/img/snake_l.svg

<svg width="702.254" height="197.002" viewBox="0 0 712.254 207.002" xmlns="http://www.w3.org/2000/svg">
  <g id="svgGroup" stroke-linecap="round" fill-rule="evenodd" font-size="9pt" stroke="#000" stroke-width="3mm" fill="#000" style="stroke:#000;stroke-width:3mm;fill:#000" transform="translate(5,5)">
    <path d="M 129.504 167.501 L 108.504 142.001 Q 105.004 137.501 99.254 131.001 Q 93.504 124.501 88.004 124.501 Q 86.004 124.501 83.254 125.001 Q 80.504 125.501 78.004 126.501 Q 73.004 127.501 67.004 128.501 Q 61.004 129.501 52.504 129.501 Q 32.504 129.501 16.254 121.001 Q 0.004 112.501 0.004 97.001 Q 0.004 85.501 11.254 73.501 Q 22.504 61.501 41.504 55.501 L 4.004 19.001 Q -0.996 14.001 1.504 7.001 Q 4.004 0.001 11.504 0.001 Q 17.004 0.001 21.504 4.001 L 69.004 50.001 L 116.504 4.001 Q 121.004 0.001 126.504 0.001 Q 134.004 0.001 137.004 7.001 Q 140.004 14.001 134.504 19.001 L 96.504 55.501 Q 112.504 61.501 123.004 71.251 Q 133.504 81.001 137.004 86.001 L 154.504 109.501 Q 160.004 116.001 167.504 123.001 Q 175.004 130.001 185.504 130.001 Q 198.504 130.001 215.754 125.001 Q 233.004 120.001 255.504 112.501 Q 267.004 108.501 287.504 102.751 Q 308.004 97.001 328.004 97.001 Q 352.504 97.001 375.004 104.751 Q 397.504 112.501 420.004 122.001 Q 432.004 127.001 455.254 136.001 Q 478.504 145.001 510.254 152.001 Q 542.004 159.001 579.504 159.001 Q 602.504 159.001 619.504 158.251 Q 636.504 157.501 653.004 155.751 Q 669.504 154.001 690.004 151.001 Q 697.004 150.001 700.004 154.251 Q 703.004 158.501 702.004 164.001 Q 701.004 169.501 694.504 172.501 Q 665.504 186.501 635.754 191.751 Q 606.004 197.001 577.004 197.001 Q 548.004 197.001 515.504 194.001 Q 483.004 191.001 452.504 188.001 Q 427.004 185.001 404.754 183.001 Q 382.504 181.001 366.504 181.001 Q 346.504 181.001 325.254 183.501 Q 304.004 186.001 284.504 189.001 Q 265.004 192.001 244.504 194.501 Q 224.004 197.001 203.504 197.001 Q 181.504 197.001 168.254 194.001 Q 155.004 191.001 146.504 184.251 Q 138.004 177.501 129.504 167.501 Z M 147.004 115.501 L 129.504 91.501 Q 127.004 88.001 119.254 80.501 Q 111.504 73.001 99.254 66.751 Q 87.004 60.501 70.004 60.501 Q 52.504 60.501 38.754 66.501 Q 25.004 72.501 17.254 80.751 Q 9.504 89.001 9.504 97.001 Q 9.504 108.001 22.504 114.001 Q 35.504 120.001 52.504 120.001 Q 61.004 120.001 66.254 119.001 Q 71.504 118.001 75.504 117.001 Q 79.004 116.001 82.004 115.501 Q 85.004 115.001 88.004 115.001 Q 97.004 115.001 104.254 122.751 Q 111.504 130.501 116.004 136.001 L 137.004 161.001 Q 146.004 172.001 159.754 179.751 Q 173.504 187.501 203.504 187.501 Q 223.504 187.501 243.254 185.001 Q 263.004 182.501 283.004 179.501 Q 303.504 176.001 324.004 173.501 Q 344.504 171.001 366.504 171.001 Q 383.004 171.001 405.754 173.251 Q 428.504 175.501 453.504 178.001 Q 483.504 181.501 516.504 184.501 Q 549.504 187.501 577.004 187.501 Q 603.004 187.501 631.754 182.001 Q 660.504 176.501 685.004 166.001 Q 690.504 163.501 690.004 162.001 Q 689.504 160.501 684.504 161.501 Q 658.504 166.001 635.504 167.501 Q 612.504 169.001 579.504 169.001 Q 542.504 169.001 510.254 162.001 Q 478.004 155.001 453.754 145.751 Q 429.504 136.501 416.004 131.001 Q 396.004 122.501 373.004 114.751 Q 350.004 107.001 328.004 107.001 Q 309.504 107.001 289.754 112.251 Q 270.004 117.501 258.504 121.501 Q 235.504 129.001 217.754 134.501 Q 200.004 140.001 185.504 140.001 Q 171.004 140.001 162.004 131.751 Q 153.004 123.501 147.004 115.501 Z M 80.504 51.501 L 86.004 52.501 L 125.004 15.501 Q 128.504 12.001 128.504 10.501 Q 128.504 9.001 126.504 9.001 Q 124.504 9.001 122.004 11.501 L 80.504 51.501 Z M 13.504 15.501 L 52.004 52.501 L 57.504 52.001 L 16.504 11.501 Q 14.004 9.001 12.004 9.001 Q 10.004 9.001 10.004 10.501 Q 10.004 12.001 13.504 15.501 Z M 65.004 86.001 Q 56.504 86.001 56.504 77.501 Q 56.504 69.501 65.004 69.501 Q 73.004 69.501 73.004 77.501 Q 73.004 86.001 65.004 86.001 Z"/>
  </g>
</svg>

<svg width="702.254" height="197.002" viewBox="0 0 712.254 207.002" xmlns="http://www.w3.org/2000/svg"><path d="m129.504 167.501-21-25.5q-3.5-4.5-9.25-11t-11.25-6.5q-2 0-4.75.5t-5.25 1.5q-5 1-11 2t-14.5 1q-20 0-36.25-8.5t-16.25-24q0-11.5 11.25-23.5t30.25-18l-37.5-36.5q-5-5-2.5-12t10-7q5.5 0 10 4l47.5 46 47.5-46q4.5-4 10-4 7.5 0 10.5 7t-2.5 12l-38 36.5q16 6 26.5 15.75t14 14.75l17.5 23.5q5.5 6.5 13 13.5t18 7q13 0 30.25-5t39.75-12.5q11.5-4 32-9.75t40.5-5.75q24.5 0 47 7.75t45 17.25q12 5 35.25 14t55 16q31.75 7 69.25 7 23 0 40-.75t33.5-2.5q16.5-1.75 37-4.75 7-1 10 3.25t2 9.75q-1 5.5-7.5 8.5-29 14-58.75 19.25t-58.75 5.25q-29 0-61.5-3t-63-6q-25.5-3-47.75-5t-38.25-2q-20 0-41.25 2.5t-40.75 5.5q-19.5 3-40 5.5t-41 2.5q-22 0-35.25-3t-21.75-9.75q-8.5-6.75-17-16.75zm17.5-52-17.5-24q-2.5-3.5-10.25-11t-20-13.75q-12.25-6.25-29.25-6.25-17.5 0-31.25 6t-21.5 14.25q-7.75 8.25-7.75 16.25 0 11 13 17t30 6q8.5 0 13.75-1t9.25-2q3.5-1 6.5-1.5t6-.5q9 0 16.25 7.75t11.75 13.25l21 25q9 11 22.75 18.75t43.75 7.75q20 0 39.75-2.5t39.75-5.5q20.5-3.5 41-6t42.5-2.5q16.5 0 39.25 2.25t47.75 4.75q30 3.5 63 6.5t60.5 3q26 0 54.75-5.5t53.25-16q5.5-2.5 5-4t-5.5-.5q-26 4.5-49 6t-56 1.5q-37 0-69.25-7t-56.5-16.25q-24.25-9.25-37.75-14.75-20-8.5-43-16.25t-45-7.75q-18.5 0-38.25 5.25t-31.25 9.25q-23 7.5-40.75 13t-32.25 5.5q-14.5 0-23.5-8.25t-15-16.25zm-66.5-64 5.5 1 39-37q3.5-3.5 3.5-5t-2-1.5q-2 0-4.5 2.5l-41.5 40zm-67-36 38.5 37 5.5-.5-41-40.5q-2.5-2.5-4.5-2.5t-2 1.5q0 1.5 3.5 5zm51.5 70.5q-8.5 0-8.5-8.5 0-8 8.5-8 8 0 8 8 0 8.5-8 8.5z" transform="translate(5 5)" stroke-linecap="round" fill-rule="evenodd" font-size="12" stroke="#000" stroke-width="3mm" style="stroke:#000;stroke-width:3mm;fill:#000"/></svg>
